Extension/src/pages/assets/icons/reload-ico.svg

<svg height="18" viewBox="0 0 22 18" width="22" xmlns="http://www.w3.org/2000/svg"><g fill="none" fill-rule="evenodd" transform="translate(-1 -3)"><path d="m0 0h24v24h-24z"/><path d="m18.2914876 16.0083773 1.3630986.8811449c-1.6728314 2.5741257-4.5051373 4.1104778-7.5761878 4.1104778-4.81798368 0-8.7658011-3.7849237-9.01152001-8.5303624l-.86406377.9492119-1.20281462-1.0890722 2.78585217-3.06015904 3.0683106 2.77882364-1.09209788 1.199619-1.07615668-.9745507c.14496544 3.9426702 3.40419703 7.1060476 7.39236569 7.1060476 2.5184631 0 4.8411482-1.2599851 6.2132137-3.3711805zm3.3921166-6.91004447-.7710318 1.06360927c-.8533533-4.08414531-4.4900679-7.1619421-8.834174-7.1619421-2.76281212 0-5.33619776 1.23700627-7.06046453 3.39403517l1.27044025 1.0100748c1.41403574-1.76924563 3.52450339-2.78379199 5.79002428-2.78379199 3.5634847 0 6.5466094 2.52568384 7.2446603 5.87661822l-1.1577308-.83506311-.951865 1.31314691 3.3584905 2.4217202 2.4280466-3.3493196z" fill="#646464" fill-rule="nonzero" opacity=".5"/></g></svg>

<?xml version="1.0" encoding="UTF-8"?>
<svg width="22px" height="18px" viewBox="0 0 22 18" version="1.1" xmlns="http://www.w3.org/2000/svg" xmlns:xlink="http://www.w3.org/1999/xlink">
    <!-- Generator: Sketch 51.2 (57519) - http://www.bohemiancoding.com/sketch -->
    <title>Group 20</title>
    <desc>Created with Sketch.</desc>
    <defs></defs>
    <g id="Правки-настроек" stroke="none" stroke-width="1" fill="none" fill-rule="evenodd">
        <g id="Настройки-3" transform="translate(-1092.000000, -110.000000)">
            <g id="Group-21" transform="translate(918.000000, 101.000000)">
                <g id="Group-20" transform="translate(173.000000, 6.000000)">
                    <rect id="Rectangle-6" x="0" y="0" width="24" height="24"></rect>
                    <path d="M18.2914876,16.0083773 L19.6545862,16.8895222 C17.9817548,19.4636479 15.1494489,21 12.0783984,21 C7.26041472,21 3.3125973,17.2150763 3.06687839,12.4696376 L2.20281462,13.4188495 L1,12.3297773 L3.78585217,9.26961826 L6.85416277,12.0484419 L5.76206489,13.2480609 L4.68590821,12.2735102 C4.83087365,16.2161804 8.09010524,19.3795578 12.0782739,19.3795578 C14.596737,19.3795578 16.9194221,18.1195727 18.2914876,16.0083773 Z M21.6836042,9.09833283 L20.9125724,10.1619421 C20.0592191,6.07779679 16.4225045,3 12.0783984,3 C9.31558628,3 6.74220064,4.23700627 5.01793387,6.39403517 L6.28837412,7.40410997 C7.70240986,5.63486434 9.81287751,4.62031798 12.0783984,4.62031798 C15.6418831,4.62031798 18.6250078,7.14600182 19.3230587,10.4969362 L18.1653279,9.66187309 L17.2134629,10.97502 L20.5719534,13.3967402 L23,10.0474206 L21.6836042,9.09833283 Z" id="Shape" fill="#646464" fill-rule="nonzero" opacity="0.5"></path>
                </g>
            </g>
        </g>
    </g>
</svg>
